X: 2002
T: Dance Around Molly
B: steve tunes
M:2/4
L:1/8
Q: 1/4=100
K:A
V:1 
|: "A"A,CEF [A2A2] Ac | BABc [AA]FEC |  A,CEF [A2A2] Ac | BABc [AA]FEC |
 A,CEF [A2A2] Ac | BABc [AA]FEC | cdef ecAF| EFAc "E"(3BcB "A"A2:|
|: e"(1)"g |"(1)"ac'a"(0)"e fgaf| edcB A2 e"(1)"g | "(1)"aeac' afef | ac'"E"b2z2 "A"eg |
"A"aeac' aefg | afed cBAF|EFAB ceaf |ec"E"BG "A"A2:|
% abcbook-tune_id 6298c245a046bfe54e38afc5


% abcbook-boost 3
% abcbook-tablature 
% abcbook-transpose 
% abcbook-lastupdated 1655260258936
% abcbook-soundfonts 
% abcbook-repeats 3
% as taught by Barry Mitterhoff

